X: 2
T: Green Mountain Petronella
I: RJ R-42 G reel
M: C|
R: reel
K: G
z2 |\
"G"D2G2 GFGE | D2B2 BGAB |\
[1,3 "D"c2cB ABcd | "C"e2d2 "G"d4 :|\
[2,4 "D"c2A2 AGFG | "G"A2G2 G2 :|
|: Bd |\
"G(Em)"gggz  "D(Bm)"fffz |\
"C"efge "G"dBGB | "C"edef "G"g2B2 |\
[1,3 "D"B2A2 A2 :|[2 "(D7)"A2G2 "G"G2 :|[4 "D7"A4 "G"G2 |] 
% text 09/30/98
